Breeze Round Light/actions/22/task-new.svg

<svg xmlns="http://www.w3.org/2000/svg" viewBox="0 0 22 22">
  <defs id="defs3051">
<style type="text/css" id="current-color-scheme">.ColorScheme-Text {color:#fcfcfc;}</style>
  </defs>
 <path 
     style="fill:currentColor;fill-opacity:1;stroke:none" 
     d="m 3,3 c 0,0 0,10 0,13 0,3 3,3 3,3 h 7 V 18 H 6 C 6,18 4,18 4,16 4,14 4,7 4,7 h 14 v 6 h 1 V 3 H 17 V 6 H 15 V 3 H 7 V 6 H 5 V 3 Z M 14.292969,9 9.7011719,13.591797 8.5546875,12.445312 7.8476562,13.152344 9.6933594,15 9.6992188,14.992188 9.7070312,15 15,9.7070312 Z M 16,14 v 2 h -2 v 1 h 2 v 2 h 1 v -2 h 2 v -1 h -2 v -2 z"
	 class="ColorScheme-Text"
     />
</svg>

<svg xmlns="http://www.w3.org/2000/svg" viewBox="0 0 22 22">
  <defs id="defs3051">
    <style type="text/css" id="current-color-scheme">
      .ColorScheme-Text {
        color:#232629;
      }
      </style>
  </defs>
 <path 
     style="fill:currentColor;fill-opacity:1;stroke:none" 
     d="M 3 3 L 3 19 L 13 19 L 13 18 L 4 18 L 4 7 L 18 7 L 18 13 L 19 13 L 19 3 L 17 3 L 17 6 L 15 6 L 15 3 L 7 3 L 7 6 L 5 6 L 5 3 L 3 3 z M 14.292969 9 L 9.7011719 13.591797 L 8.5546875 12.445312 L 7.8476562 13.152344 L 9.6933594 15 L 9.6992188 14.992188 L 9.7070312 15 L 15 9.7070312 L 14.292969 9 z M 16 14 L 16 16 L 14 16 L 14 17 L 16 17 L 16 19 L 17 19 L 17 17 L 19 17 L 19 16 L 17 16 L 17 14 L 16 14 z "
	 class="ColorScheme-Text"
     />
</svg>
